!!!OTL: Zwischen Basel und dem Rheinstrom (3-85), S.235
!!!id: P1058
**kern
*clefG2
*k[]
*G:
{8.d
16d
=1
4g
4g
8.a
16a
=2
4b
4b}
=3
{8.g
16a
=4
4b
4dd
8cc
8ee
=5
2dd}
4r
=6
{2dd
8r
8dd
=7
8.ee
16cc
4cc
4ee
=8
4dd}
=9
{4g
8.g
16b
=10
4dd
4dd
8cc
8a
=11
4b
4dd}
4r
=12
{2dd
8r
8gg
=13
8.ee
16cc
4cc
4ee
=14
4dd}
=15
{4g
8.g
16b
=16
4dd
4dd
4cc
=17
2b}
==
*-
!!!minrhy: 16
!!!meters: 3/4 ]  ZZ[6
!!!cut: Zwischen Basel und dem Rheinstrom (3-85), S.235
!!!reg: Lothringen
!!!trd: PINCK, Louis: Verklingende Weisen, Bd3, Metz 1933
!!!rhy1: X_.X  X__X__X_.X  X__X__
!!!rhy2: X_.X  X__X__X_X_  X___0__
!!!key: P1058  16  G 3/4 ]  ZZ[6
!!!mod: SECHSTONSKALA DUR ?]  AMBITUS[11
!!!kad: 355553
!!!akz: 13_35_565_53_565_53_
!!!fot: 'a__as"b__c__bv_cv_
!!!for: 'a__b__c__bw_c__d__
!!!fok: '/__/__-__~a_^__^a_
!! PHRAS[VORWIEGEND AUFTAKTIG]
!!!fkt: Liebe, Abschied
!! LOTH VKL
!! PR[32] 2K[0] 2G[5] 3K[5] 3G[3] 4A[0] 4Ü[0] 5A[5] 6K[3] 6G[0]
!! 7K[0] 7G[0] 8A[0] MEHR[0] SI[22] ABS[37] SR[5] SP[16]
!! ST[8] 2k[5] 2g[24] 3k[14] 3g[3] 4d[0] 4ü[0] 5d[0] 6k[0] 6g[0]
!! 7k[0] 7g[0] 8d[0] mehr[0] si[46] dm[-24] sr[30] sp[16]
!! 1F[10] 2F[43] 3F[26] 4F[2] LF[0] 2P[10] 3P[10] 4P[0] TRI[0] DF[6] AB[42]
!! TF[0] U3K[0] U3[0] U4[0] U4Ü[0] U5[0] U6K[0] U6[0] U7K[0] U7[0]
!! N1[3] N2K[0] N2[11] N3K[0] N3[13] N4[13] N4Ü[0] N5[37] N6K[0] N6[21]
!!!n7k: 0] N7[0] O1[3] O2K[0] O2[0] O3K[0] O3[0] HÖ[0
